Newaita-dark/.places-gray/64/folder-saved-search.svg

<?xml version="1.0" encoding="UTF-8"?>
<svg xmlns="http://www.w3.org/2000/svg" xmlns:xlink="http://www.w3.org/1999/xlink" width="64px" height="64px" viewBox="0 0 64 64" version="1.1">
<defs>
<linearGradient id="linear0" gradientUnits="userSpaceOnUse" x1="254" y1="233.5" x2="254" y2="254.666672" gradientTransform="matrix(0.125012,0,0,0.125012,-0.00000763012,26.877574)">
<stop offset="0" style="stop-color:rgb(0%,0%,0%);stop-opacity:0.27451;"/>
<stop offset="1" style="stop-color:rgb(0%,0%,0%);stop-opacity:0;"/>
</linearGradient>
<radialGradient id="radial0" gradientUnits="userSpaceOnUse" cx="450.908936" cy="189.579361" fx="450.908936" fy="189.579361" r="21.166656" gradientTransform="matrix(0.000000348341,-0.156265,-0.281277,-0.000000203077,108.230425,127.190669)">
<stop offset="0" style="stop-color:rgb(0%,0%,0%);stop-opacity:0.313726;"/>
<stop offset="0.222222" style="stop-color:rgb(0%,0%,0%);stop-opacity:0.27451;"/>
<stop offset="1" style="stop-color:rgb(0%,0%,0%);stop-opacity:0;"/>
</radialGradient>
<radialGradient id="radial1" gradientUnits="userSpaceOnUse" cx="450.908936" cy="189.579361" fx="450.908936" fy="189.579361" r="21.166656" gradientTransform="matrix(-0.000000348341,0.156265,0.281277,0.000000203077,-44.724356,-15.054954)">
<stop offset="0" style="stop-color:rgb(0%,0%,0%);stop-opacity:0.313726;"/>
<stop offset="0.222222" style="stop-color:rgb(0%,0%,0%);stop-opacity:0.27451;"/>
<stop offset="1" style="stop-color:rgb(0%,0%,0%);stop-opacity:0;"/>
</radialGradient>
<radialGradient id="radial2" gradientUnits="userSpaceOnUse" cx="450.908936" cy="189.579361" fx="450.908936" fy="189.579361" r="21.166656" gradientTransform="matrix(-0.000000348341,-0.156265,0.281277,-0.000000203077,-44.724356,127.190669)">
<stop offset="0" style="stop-color:rgb(0%,0%,0%);stop-opacity:0.313726;"/>
<stop offset="0.222222" style="stop-color:rgb(0%,0%,0%);stop-opacity:0.27451;"/>
<stop offset="1" style="stop-color:rgb(0%,0%,0%);stop-opacity:0;"/>
</radialGradient>
<radialGradient id="radial3" gradientUnits="userSpaceOnUse" cx="450.908936" cy="189.579361" fx="450.908936" fy="189.579361" r="21.166656" gradientTransform="matrix(0.000000348341,0.156265,-0.281277,0.000000203077,108.230422,-15.054955)">
<stop offset="0" style="stop-color:rgb(0%,0%,0%);stop-opacity:0.313726;"/>
<stop offset="0.222222" style="stop-color:rgb(0%,0%,0%);stop-opacity:0.27451;"/>
<stop offset="1" style="stop-color:rgb(0%,0%,0%);stop-opacity:0;"/>
</radialGradient>
<linearGradient id="linear1" gradientUnits="userSpaceOnUse" x1="254" y1="-147.5" x2="254" y2="-31.083334" gradientTransform="matrix(0.125012,0,0,0.125012,0.00000249951,26.877563)">
<stop offset="0" style="stop-color:rgb(64.313728%,64.313728%,64.313728%);stop-opacity:0;"/>
<stop offset="1" style="stop-color:rgb(100%,100%,100%);stop-opacity:0.196078;"/>
</linearGradient>
<linearGradient id="linear2" gradientUnits="userSpaceOnUse" x1="254" y1="233.5" x2="254" y2="-105.166656" gradientTransform="matrix(0.125012,0,0,0.125012,-0.00000362479,26.877566)">
<stop offset="0" style="stop-color:rgb(34.509805%,34.509805%,34.509805%);stop-opacity:0;"/>
<stop offset="1" style="stop-color:rgb(98.039216%,98.039216%,98.039216%);stop-opacity:0.196078;"/>
</linearGradient>
</defs>
<g id="surface1">
<path style=" stroke:none;fill-rule:nonzero;fill:url(#linear0);" d="M 7.9375 56.066406 L 55.566406 56.066406 L 55.566406 58.714844 L 7.9375 58.714844 Z M 7.9375 56.066406 "/>
<path style=" stroke:none;fill-rule:nonzero;fill:url(#radial0);" d="M 55.566406 56.066406 L 60.859375 56.066406 L 60.859375 53.421875 L 55.566406 53.421875 Z M 55.566406 56.066406 "/>
<path style=" stroke:none;fill-rule:nonzero;fill:url(#radial1);" d="M 7.9375 56.066406 L 2.644531 56.066406 L 2.644531 58.714844 L 7.9375 58.714844 Z M 7.9375 56.066406 "/>
<path style=" stroke:none;fill-rule:nonzero;fill:url(#radial2);" d="M 7.9375 56.066406 L 2.644531 56.066406 L 2.644531 53.421875 L 7.9375 53.421875 Z M 7.9375 56.066406 "/>
<path style=" stroke:none;fill-rule:nonzero;fill:url(#radial3);" d="M 55.566406 56.066406 L 60.859375 56.066406 L 60.859375 58.714844 L 55.566406 58.714844 Z M 55.566406 56.066406 "/>
<path style=" stroke:none;fill-rule:nonzero;fill:rgb(74.117649%,74.117649%,74.117649%);fill-opacity:1;" d="M 14.554688 8.4375 L 57.550781 8.4375 C 59.015625 8.4375 60.199219 9.621094 60.199219 11.085938 L 60.199219 21.007812 C 60.199219 22.46875 59.015625 23.652344 57.550781 23.652344 L 14.554688 23.652344 C 13.09375 23.652344 11.90625 22.46875 11.90625 21.007812 L 11.90625 11.085938 C 11.90625 9.621094 13.09375 8.4375 14.554688 8.4375 Z M 14.554688 8.4375 "/>
<path style=" stroke:none;fill-rule:nonzero;fill:url(#linear1);" d="M 14.554688 8.4375 L 57.550781 8.4375 C 59.015625 8.4375 60.199219 9.621094 60.199219 11.085938 L 60.199219 21.007812 C 60.199219 22.46875 59.015625 23.652344 57.550781 23.652344 L 14.554688 23.652344 C 13.09375 23.652344 11.90625 22.46875 11.90625 21.007812 L 11.90625 11.085938 C 11.90625 9.621094 13.09375 8.4375 14.554688 8.4375 Z M 14.554688 8.4375 "/>
<path style=" stroke:none;fill-rule:nonzero;fill:rgb(100%,100%,100%);fill-opacity:0.392157;" d="M 14.554688 8.605469 C 13.085938 8.605469 11.90625 9.785156 11.90625 11.25 L 11.90625 11.582031 C 11.90625 10.117188 13.085938 8.9375 14.554688 8.9375 L 57.550781 8.9375 C 59.019531 8.9375 60.199219 10.117188 60.199219 11.582031 L 60.199219 11.25 C 60.199219 9.785156 59.019531 8.605469 57.550781 8.605469 Z M 14.554688 8.605469 "/>
<path style=" stroke:none;fill-rule:nonzero;fill:rgb(12.941177%,12.941177%,12.941177%);fill-opacity:1;" d="M 14.554688 8.25 C 12.988281 8.25 11.71875 9.519531 11.71875 11.085938 L 11.71875 21.007812 C 11.71875 22.574219 12.988281 23.839844 14.554688 23.839844 L 57.550781 23.839844 C 59.117188 23.839844 60.386719 22.574219 60.386719 21.007812 L 60.386719 11.085938 C 60.386719 9.519531 59.117188 8.25 57.550781 8.25 Z M 14.554688 8.625 L 57.550781 8.625 C 58.917969 8.625 60.011719 9.71875 60.011719 11.085938 L 60.011719 21.007812 C 60.011719 22.371094 58.917969 23.464844 57.550781 23.464844 L 14.554688 23.464844 C 13.1875 23.464844 12.09375 22.371094 12.09375 21.007812 L 12.09375 11.085938 C 12.09375 9.71875 13.1875 8.625 14.554688 8.625 Z M 14.554688 8.625 "/>
<path style=" stroke:none;fill-rule:nonzero;fill:rgb(87.843138%,87.843138%,87.843138%);fill-opacity:1;" d="M 5.292969 13.730469 C 3.828125 13.730469 2.644531 14.910156 2.644531 16.375 L 2.644531 53.421875 C 2.644531 54.886719 3.828125 56.066406 5.292969 56.066406 L 58.214844 56.066406 C 59.679688 56.066406 60.859375 54.886719 60.859375 53.421875 L 60.859375 20.34375 L 25.136719 20.34375 C 23.671875 20.34375 22.492188 19.164062 22.492188 17.699219 L 22.492188 13.730469 Z M 5.292969 13.730469 "/>
<path style=" stroke:none;fill-rule:nonzero;fill:url(#linear2);" d="M 5.292969 13.730469 C 3.828125 13.730469 2.644531 14.910156 2.644531 16.375 L 2.644531 53.421875 C 2.644531 54.886719 3.828125 56.066406 5.292969 56.066406 L 58.214844 56.066406 C 59.679688 56.066406 60.859375 54.886719 60.859375 53.421875 L 60.859375 20.34375 L 25.136719 20.34375 C 23.671875 20.34375 22.492188 19.164062 22.492188 17.699219 L 22.492188 13.730469 Z M 5.292969 13.730469 "/>
<path style=" stroke:none;fill-rule:nonzero;fill:rgb(0%,0%,0%);fill-opacity:0.196078;" d="M 5.292969 56.066406 C 3.828125 56.066406 2.644531 54.886719 2.644531 53.421875 L 2.644531 53.089844 C 2.644531 54.558594 3.828125 55.738281 5.292969 55.738281 L 58.214844 55.738281 C 59.679688 55.738281 60.859375 54.558594 60.859375 53.089844 L 60.859375 53.421875 C 60.859375 54.886719 59.679688 56.066406 58.214844 56.066406 Z M 5.292969 56.066406 "/>
<path style=" stroke:none;fill-rule:nonzero;fill:rgb(100%,100%,100%);fill-opacity:0.392157;" d="M 5.292969 13.894531 C 3.828125 13.894531 2.644531 15.074219 2.644531 16.542969 L 2.644531 16.871094 C 2.644531 15.40625 3.828125 14.226562 5.292969 14.226562 L 22.492188 14.226562 L 22.492188 13.894531 Z M 5.292969 13.894531 "/>
<path style=" stroke:none;fill-rule:nonzero;fill:rgb(100%,100%,100%);fill-opacity:0.392157;" d="M 24.972656 20.675781 C 23.507812 20.675781 22.328125 19.496094 22.328125 18.03125 L 22.328125 17.699219 C 22.328125 19.164062 23.507812 20.347656 24.972656 20.34375 L 60.859375 20.34375 L 60.859375 20.675781 Z M 24.972656 20.675781 "/>
<path style=" stroke:none;fill-rule:nonzero;fill:rgb(12.941177%,12.941177%,12.941177%);fill-opacity:1;" d="M 5.292969 13.542969 C 3.726562 13.542969 2.457031 14.808594 2.457031 16.375 L 2.457031 53.421875 C 2.457031 54.988281 3.726562 56.253906 5.292969 56.253906 L 58.214844 56.253906 C 59.78125 56.253906 61.046875 54.988281 61.046875 53.421875 L 61.046875 19.96875 L 25.136719 19.96875 C 23.773438 19.96875 22.679688 18.878906 22.679688 17.511719 L 22.679688 13.542969 Z M 5.292969 13.917969 L 22.304688 13.917969 L 22.304688 17.511719 C 22.304688 19.078125 23.570312 20.34375 25.136719 20.34375 L 60.671875 20.34375 L 60.671875 53.421875 C 60.671875 54.785156 59.578125 55.878906 58.214844 55.878906 L 5.292969 55.878906 C 3.925781 55.878906 2.832031 54.785156 2.832031 53.421875 L 2.832031 16.375 C 2.832031 15.011719 3.925781 13.917969 5.292969 13.917969 Z M 5.292969 13.917969 "/>
<path style=" stroke:none;fill-rule:nonzero;fill:rgb(61.960787%,61.960787%,61.960787%);fill-opacity:1;" d="M 29.769531 25.636719 C 25.371094 25.636719 21.832031 29.179688 21.832031 33.574219 C 21.832031 37.972656 25.371094 41.515625 29.769531 41.515625 C 31.289062 41.515625 32.710938 41.089844 33.914062 40.355469 L 35.285156 41.929688 C 34.734375 42.410156 34.675781 43.242188 35.15625 43.796875 L 37.328125 46.289062 C 37.808594 46.84375 38.640625 46.902344 39.195312 46.417969 L 41.191406 44.683594 C 41.742188 44.199219 41.800781 43.367188 41.320312 42.816406 L 39.148438 40.320312 C 38.667969 39.769531 37.835938 39.710938 37.28125 40.191406 L 35.910156 38.617188 C 37.035156 37.246094 37.707031 35.492188 37.707031 33.574219 C 37.707031 29.179688 34.167969 25.636719 29.769531 25.636719 Z M 29.769531 28.285156 C 32.699219 28.285156 35.0625 30.644531 35.0625 33.574219 C 35.0625 36.507812 32.699219 38.867188 29.769531 38.867188 C 26.835938 38.867188 24.476562 36.507812 24.476562 33.574219 C 24.476562 30.644531 26.835938 28.285156 29.769531 28.285156 Z M 29.769531 28.285156 "/>
<path style=" stroke:none;fill-rule:nonzero;fill:rgb(0%,0%,0%);fill-opacity:0.235294;" d="M 29.769531 25.636719 C 25.371094 25.636719 21.832031 29.179688 21.832031 33.574219 C 21.832031 33.660156 21.832031 33.742188 21.835938 33.824219 C 21.964844 29.542969 25.453125 26.132812 29.769531 26.132812 C 34.082031 26.132812 37.570312 29.542969 37.703125 33.824219 C 37.703125 33.742188 37.707031 33.660156 37.707031 33.574219 C 37.707031 29.179688 34.167969 25.636719 29.769531 25.636719 Z M 24.480469 33.824219 C 24.476562 33.90625 24.476562 33.988281 24.476562 34.070312 C 24.476562 37.003906 26.835938 39.363281 29.769531 39.363281 C 32.699219 39.363281 35.0625 37.003906 35.0625 34.070312 C 35.0625 33.988281 35.058594 33.90625 35.054688 33.824219 C 34.925781 36.640625 32.617188 38.867188 29.769531 38.867188 C 26.917969 38.867188 24.609375 36.640625 24.480469 33.824219 Z M 36.117188 38.851562 C 36.046875 38.941406 35.980469 39.027344 35.910156 39.113281 L 37.28125 40.6875 C 37.835938 40.207031 38.667969 40.265625 39.148438 40.816406 L 41.320312 43.3125 C 41.480469 43.496094 41.582031 43.710938 41.621094 43.933594 C 41.695312 43.546875 41.597656 43.132812 41.320312 42.816406 L 39.148438 40.320312 C 38.667969 39.769531 37.835938 39.710938 37.28125 40.191406 Z M 35.066406 42.171875 C 34.859375 42.46875 34.789062 42.832031 34.855469 43.175781 C 34.90625 42.894531 35.050781 42.628906 35.285156 42.425781 Z M 35.066406 42.171875 "/>
<path style=" stroke:none;fill-rule:nonzero;fill:rgb(100%,100%,100%);fill-opacity:0.392157;" d="M 29.769531 28.285156 C 26.835938 28.285156 24.476562 30.648438 24.476562 33.578125 C 24.476562 33.664062 24.476562 33.746094 24.480469 33.828125 C 24.609375 31.011719 26.917969 28.785156 29.769531 28.785156 C 32.617188 28.785156 34.925781 31.011719 35.054688 33.828125 C 35.058594 33.746094 35.0625 33.664062 35.0625 33.578125 C 35.0625 30.648438 32.699219 28.285156 29.769531 28.285156 Z M 37.703125 33.828125 C 37.648438 35.648438 36.984375 37.308594 35.910156 38.621094 L 36.117188 38.855469 C 37.113281 37.527344 37.707031 35.871094 37.707031 34.074219 C 37.707031 33.992188 37.703125 33.910156 37.703125 33.828125 Z M 21.835938 33.828125 C 21.832031 33.910156 21.832031 33.992188 21.832031 34.074219 C 21.832031 38.472656 25.371094 42.011719 29.769531 42.011719 C 31.289062 42.011719 32.710938 41.589844 33.914062 40.851562 L 35.066406 42.175781 C 35.128906 42.089844 35.199219 42.007812 35.285156 41.933594 L 33.914062 40.355469 C 32.710938 41.09375 31.289062 41.515625 29.769531 41.515625 C 25.453125 41.515625 21.964844 38.109375 21.835938 33.828125 Z M 34.855469 43.179688 C 34.78125 43.5625 34.878906 43.976562 35.15625 44.292969 L 37.328125 46.789062 C 37.808594 47.34375 38.640625 47.398438 39.195312 46.917969 L 41.191406 45.179688 C 41.558594 44.859375 41.707031 44.382812 41.621094 43.933594 C 41.570312 44.214844 41.425781 44.480469 41.191406 44.683594 L 39.195312 46.421875 C 38.640625 46.902344 37.808594 46.847656 37.328125 46.292969 L 35.15625 43.796875 C 34.996094 43.613281 34.898438 43.398438 34.855469 43.179688 Z M 34.855469 43.179688 "/>
<path style="fill:none;stroke-width:3;stroke-linecap:butt;stroke-linejoin:miter;stroke:rgb(12.941177%,12.941177%,12.941177%);stroke-opacity:1;stroke-miterlimit:4;" d="M 238.133509 -9.925834 C 202.949369 -9.925834 174.639573 18.41521 174.639573 53.568103 C 174.639573 88.752243 202.949369 117.093287 238.133509 117.093287 C 250.288599 117.093287 261.662512 113.687362 271.286593 107.812923 L 282.254296 120.40547 C 277.848467 124.248853 277.379762 130.904468 281.223145 135.341544 L 298.596485 155.27714 C 302.439868 159.714217 309.095483 160.182922 313.532559 156.308292 L 329.499784 142.434617 C 333.905614 138.559987 334.374319 131.904372 330.530936 127.498543 L 313.157595 107.5317 C 309.314212 103.12587 302.658598 102.657165 298.221521 106.500548 L 287.253819 93.908001 C 296.252959 82.940298 301.627446 68.910388 301.627446 53.568103 C 301.627446 18.41521 273.317649 -9.925834 238.133509 -9.925834 Z M 238.133509 11.259643 C 261.568771 11.259643 280.473216 30.132841 280.473216 53.568103 C 280.473216 77.034612 261.568771 95.90781 238.133509 95.90781 C 214.667 95.90781 195.793803 77.034612 195.793803 53.568103 C 195.793803 30.132841 214.667 11.259643 238.133509 11.259643 Z M 238.133509 11.259643 " transform="matrix(0.125012,0,0,0.125012,0,26.877566)"/>
</g>
</svg>

<svg xmlns="http://www.w3.org/2000/svg" width="64pt" height="64pt" viewBox="0 0 64 64"><defs><linearGradient id="a" gradientUnits="userSpaceOnUse" x1="254" y1="233.5" x2="254" y2="254.667" gradientTransform="translate(0 26.878) scale(.12501)"><stop offset="0" stop-opacity=".275"/><stop offset="1" stop-opacity="0"/></linearGradient><radialGradient id="b" gradientUnits="userSpaceOnUse" cx="450.909" cy="189.579" fx="450.909" fy="189.579" r="21.167" gradientTransform="matrix(0 -.15626 -.28128 0 108.23 127.19)"><stop offset="0" stop-opacity=".314"/><stop offset=".222" stop-opacity=".275"/><stop offset="1" stop-opacity="0"/></radialGradient><radialGradient id="c" gradientUnits="userSpaceOnUse" cx="450.909" cy="189.579" fx="450.909" fy="189.579" r="21.167" gradientTransform="matrix(0 .15626 .28128 0 -44.724 -15.055)"><stop offset="0" stop-opacity=".314"/><stop offset=".222" stop-opacity=".275"/><stop offset="1" stop-opacity="0"/></radialGradient><radialGradient id="d" gradientUnits="userSpaceOnUse" cx="450.909" cy="189.579" fx="450.909" fy="189.579" r="21.167" gradientTransform="matrix(0 -.15626 .28128 0 -44.724 127.19)"><stop offset="0" stop-opacity=".314"/><stop offset=".222" stop-opacity=".275"/><stop offset="1" stop-opacity="0"/></radialGradient><radialGradient id="e" gradientUnits="userSpaceOnUse" cx="450.909" cy="189.579" fx="450.909" fy="189.579" r="21.167" gradientTransform="matrix(0 .15626 -.28128 0 108.23 -15.055)"><stop offset="0" stop-opacity=".314"/><stop offset=".222" stop-opacity=".275"/><stop offset="1" stop-opacity="0"/></radialGradient><linearGradient id="f" gradientUnits="userSpaceOnUse" x1="254" y1="-147.5" x2="254" y2="-31.083" gradientTransform="translate(0 26.878) scale(.12501)"><stop offset="0" stop-color="#a4a4a4" stop-opacity="0"/><stop offset="1" stop-color="#fff" stop-opacity=".196"/></linearGradient><linearGradient id="g" gradientUnits="userSpaceOnUse" x1="254" y1="233.5" x2="254" y2="-105.167" gradientTransform="translate(0 26.878) scale(.12501)"><stop offset="0" stop-color="#585858" stop-opacity="0"/><stop offset="1" stop-color="#fafafa" stop-opacity=".196"/></linearGradient><linearGradient id="h" gradientUnits="userSpaceOnUse" x1="254" y1="-147.5" x2="254" y2="233.5"><stop offset="0" stop-color="#a4a4a4" stop-opacity="0"/><stop offset="1" stop-color="#fff" stop-opacity=".196"/></linearGradient></defs><path d="M7.938 56.066h47.628v2.649H7.937zm0 0" fill="url(#a)"/><path d="M55.566 56.066h5.293v-2.644h-5.293zm0 0" fill="url(#b)"/><path d="M7.938 56.066H2.644v2.649h5.292zm0 0" fill="url(#c)"/><path d="M7.938 56.066H2.644v-2.644h5.292zm0 0" fill="url(#d)"/><path d="M55.566 56.066h5.293v2.649h-5.293zm0 0" fill="url(#e)"/><path d="M14.555 8.438H57.55a2.646 2.646 0 0 1 2.648 2.648v9.922a2.645 2.645 0 0 1-2.648 2.644H14.555a2.647 2.647 0 0 1-2.649-2.644v-9.922a2.648 2.648 0 0 1 2.649-2.649zm0 0" fill="#757575"/><path d="M14.555 8.438H57.55a2.646 2.646 0 0 1 2.648 2.648v9.922a2.645 2.645 0 0 1-2.648 2.644H14.555a2.647 2.647 0 0 1-2.649-2.644v-9.922a2.648 2.648 0 0 1 2.649-2.649zm0 0" fill="url(#f)"/><path d="M14.555 8.438a2.64 2.64 0 0 0-2.649 2.648v.328a2.64 2.64 0 0 1 2.649-2.644H57.55a2.64 2.64 0 0 1 2.648 2.644v-.328a2.64 2.64 0 0 0-2.648-2.649zm0 0" fill="#e6e6e6" fill-opacity=".588"/><path d="M14.555 8.25a2.836 2.836 0 0 0-2.836 2.836v9.922a2.832 2.832 0 0 0 2.836 2.832H57.55a2.832 2.832 0 0 0 2.836-2.832v-9.922A2.836 2.836 0 0 0 57.55 8.25zm0 .375H57.55a2.45 2.45 0 0 1 2.46 2.46v9.923a2.45 2.45 0 0 1-2.46 2.457H14.555a2.45 2.45 0 0 1-2.461-2.457v-9.922a2.45 2.45 0 0 1 2.46-2.461zm0 0" fill="#212121"/><path d="M5.293 13.73a2.642 2.642 0 0 0-2.648 2.645v37.047a2.642 2.642 0 0 0 2.648 2.644h52.922a2.639 2.639 0 0 0 2.644-2.644V20.344H25.137a2.639 2.639 0 0 1-2.645-2.645V13.73zm0 0" fill="#bdbdbd"/><path d="M5.293 13.73a2.642 2.642 0 0 0-2.648 2.645v37.047a2.642 2.642 0 0 0 2.648 2.644h52.922a2.639 2.639 0 0 0 2.644-2.644V20.344H25.137a2.639 2.639 0 0 1-2.645-2.645V13.73zm0 0" fill="url(#g)"/><path d="M5.293 56.066a2.642 2.642 0 0 1-2.648-2.644v-.332a2.643 2.643 0 0 0 2.648 2.648h52.922a2.64 2.64 0 0 0 2.644-2.648v.332a2.639 2.639 0 0 1-2.644 2.644zm0 0" fill-opacity=".196"/><path d="M5.293 13.73a2.642 2.642 0 0 0-2.648 2.645v.332a2.642 2.642 0 0 1 2.648-2.645h17.2v-.332zm0 0M24.973 20.512a2.64 2.64 0 0 1-2.645-2.649v-.328a2.637 2.637 0 0 0 2.645 2.645h35.886v.332zm0 0" fill="#e6e6e6" fill-opacity=".937"/><path d="M5.293 13.543a2.832 2.832 0 0 0-2.836 2.832v37.047a2.832 2.832 0 0 0 2.836 2.832h52.922a2.83 2.83 0 0 0 2.832-2.832V19.969h-35.91a2.447 2.447 0 0 1-2.457-2.457v-3.969zm0 .375h17.012v3.594a2.83 2.83 0 0 0 2.832 2.832h35.535v33.078a2.449 2.449 0 0 1-2.457 2.457H5.293a2.45 2.45 0 0 1-2.461-2.457V16.375a2.45 2.45 0 0 1 2.461-2.457zm0 0" fill="#212121"/><path d="M29.77 25.637a7.921 7.921 0 0 0-7.938 7.937 7.922 7.922 0 0 0 7.938 7.942c1.52 0 2.94-.426 4.144-1.16l1.371 1.574c-.55.48-.61 1.312-.129 1.867l2.172 2.492c.48.555 1.313.613 1.867.129l1.996-1.734c.551-.485.61-1.317.13-1.868l-2.173-2.496a1.323 1.323 0 0 0-1.867-.129l-1.37-1.574a7.914 7.914 0 0 0 1.796-5.043 7.921 7.921 0 0 0-7.937-7.937zm0 2.648c2.93 0 5.293 2.36 5.293 5.29a5.282 5.282 0 0 1-5.293 5.292 5.28 5.28 0 0 1-5.293-5.293c0-2.93 2.359-5.289 5.293-5.289zm0 0" fill="#757575"/><path d="M238.134-9.926c-35.185 0-63.494 28.341-63.494 63.494 0 35.184 28.31 63.525 63.494 63.525 12.155 0 23.529-3.406 33.153-9.28l10.967 12.592a10.585 10.585 0 0 0-1.03 14.937l17.372 19.935a10.529 10.529 0 0 0 14.937 1.031l15.967-13.873c4.406-3.875 4.874-10.53 1.03-14.936l-17.372-19.967a10.585 10.585 0 0 0-14.936-1.031l-10.968-12.593c8.999-10.968 14.373-24.998 14.373-40.34 0-35.153-28.31-63.494-63.493-63.494zm0 21.186c23.435 0 42.34 18.873 42.34 42.308 0 23.467-18.905 42.34-42.34 42.34a42.234 42.234 0 0 1-42.34-42.34c0-23.435 18.873-42.308 42.34-42.308zm0 0" transform="translate(0 26.878) scale(.12501)" fill="url(#h)" stroke-width="3" stroke="#212121"/></svg>
